symbolic/32x32/apps/zeal.svg

<svg xmlns="http://www.w3.org/2000/svg" width="32" height="32" version="1">
 <path style="opacity:0.2" d="M 5.5175781,3 C 4.6766851,3 4,3.6247906 4,4.4003906 L 4,29.599609 C 4,30.375208 4.6766851,31 5.5175781,31 L 9,31 26.5,31 C 27.331,31 28,30.375208 28,29.599609 L 28,4.4003906 C 28,3.6247906 27.331,3 26.5,3 L 15.984375,3 9,3 5.5175781,3 Z"/>
 <path style="fill:#4f4f4f" d="M 5.5178572,2.0000001 C 4.6769642,2.0000001 4,2.6244001 4,3.4000001 L 4,28.600001 C 4,29.3756 4.6769642,30 5.5178572,30 L 9,30 9,2.0000001 Z"/>
 <path style="fill:#c4411a" d="M 9,2.0000001 9,30 26.5,30 C 27.331,30 28,29.3756 28,28.600001 L 28,3.4000001 c 0,-0.7756 -0.669,-1.4 -1.5,-1.4 l -10.51575,0 z"/>
 <path style="opacity:0.2;fill:none;stroke:#000000;stroke-width:2;stroke-linecap:round;stroke-linejoin:round" d="m 13,9.9999002 11,0 -11,13.9999998 11,0"/>
 <path style="fill:none;stroke:#ffffff;stroke-width:2;stroke-linecap:round;stroke-linejoin:round" d="m 13,9.0000002 11,0 L 13,23 24,23"/>
 <path style="fill:#ffffff;opacity:0.1" d="M 5.5175781 2 C 4.6766851 2 4 2.6247906 4 3.4003906 L 4 4.4003906 C 4 3.6247906 4.6766851 3 5.5175781 3 L 9 3 L 15.984375 3 L 26.5 3 C 27.331 3 28 3.6247906 28 4.4003906 L 28 3.4003906 C 28 2.6247906 27.331 2 26.5 2 L 15.984375 2 L 9 2 L 5.5175781 2 z"/>
</svg>

<svg xmlns="http://www.w3.org/2000/svg" width="32" height="32" version="1"><path style="opacity:.2" d="M5.518 3C4.677 3 4 3.625 4 4.4v25.2c0 .775.677 1.4 1.518 1.4H26.5c.831 0 1.5-.625 1.5-1.4V4.4c0-.775-.669-1.4-1.5-1.4H5.518z"/><path style="fill:#4f4f4f" d="M5.518 2C4.677 2 4 2.624 4 3.4v25.2c0 .776.677 1.4 1.518 1.4H9V2z"/><path style="fill:#c4411a" d="M9 2v28h17.5c.831 0 1.5-.624 1.5-1.4V3.4c0-.776-.669-1.4-1.5-1.4H15.984z"/><path style="opacity:.2;fill:none;stroke:#000;stroke-width:2;stroke-linecap:round;stroke-linejoin:round" d="M13 10h11L13 24h11"/><path style="fill:none;stroke:#fff;stroke-width:2;stroke-linecap:round;stroke-linejoin:round" d="M13 9h11L13 23h11"/><path style="fill:#fff;opacity:.1" d="M5.518 2C4.677 2 4 2.625 4 3.4v1C4 3.625 4.677 3 5.518 3H26.5c.831 0 1.5.625 1.5 1.4v-1c0-.775-.669-1.4-1.5-1.4H5.518z"/></svg>
